X: 35748
T: Salamanca, The
R: reel
M: 4/4
K: Dmajor
|dB|:AD(3FED AD(3FED|Adcd fdcd|BE~G2 BE~G2|Bded cdeg|
fB~B2 fB~B2|fafc deag|fdec dBAG|FGEF D2:|
|:fg|afde gbeg|fdcd AGFG|Addc defg|a2^gb a2f=g|
~a3f ~g3e|~f3d dfag|fdec dBAG|FGEF D2:|

